!!!SOCIAL_FUNCTION:	miscellaneous songs
!!!PDT:	1922
!!!OTL: No_103_Smoking_Song_(a).krn
!!!REG: Southwest
!!!LANG: Non-Tone
!!!LING_GROUP: Uto-Aztecan
**kern	**kern
*staff2	*staff1
=1-	=1-
*clefF4	*clefF4
*k[b-e-a-d-g-]	*k[b-e-a-d-g-]
*M3/4	*M3/4
4GG-/	4.e-\
4GG-/	.
.	8c\
4GG-/	8c\L
.	8c\J
=2	=2
4GG-/	2e-\
4GG-/	.
4GG-/	4c\
=3||	=3||
*M2/4	*M2/4
2r	4.A-\
.	8E-\
=4	=4
2r	2E-\
=5	=5
2r	[2E-\
=6	=6
2r	2E-\]
=7	=7
2r	2E-\
=8||	=8||
*M3/4	*M3/4
2.r	4.d-\
.	8d-\
.	8d-\L
.	8d-\J
=9	=9
2.r	2d-\
.	4c\
=10	=10
2.r	2.A-\
=11||	=11||
*M2/4	*M2/4
2r	4F\
.	8E-\L
.	8E-\J
=12	=12
2r	2F\
=13||	=13||
*M3/4	*M3/4
2.r	4E-\
.	8D-\L
.	[8D-\J
.	8D-/L]
.	8BB-/J
=14||	=14||
*M2/4	*M2/4
2r	4F\
.	8E-\L
.	8E-\J
=15	=15
2r	2F\
=16||	=16||
*M3/4	*M3/4
2.r	4E-\
.	8D-\L
.	[8D-\J
.	8D-/L]
.	8BB-/J
=17||	=17||
*M2/4	*M2/4
2r	2D-\
=18	=18
2r	2BB-/
=19	=19
2r	2BB-/
==	==
*-	*-
